X:143
T:Paddy Whack #3
C:Joe Buchanan's Scottish Tome - Page 256.4
I:256 4
Z:Carl Allison
R:Jig
L:1/8
M:6/8
K:G
c | BGB cde | dBG A2 G | GBd efg | fdd d2 e/f/ | gbg gfd | c>de dBG | GAB cAd | BGG G2 :|
B | GAB gfg | edc BAG | GBd efg | fdd d2 z {ef} | GBd gfg | edc BAG | GAB cAd | BGG G2 |
B |GBd gfg | edc BAG| GBd efg | fdd z {ef} | gfg afd | cde dBG | GAB cAd | BGG G2 |]
